X:1
T:Seventh Apostle, Anton The Flame Eater
T:Seventh Apostle, Anton The Flame Eater
T:The One Who Can Reach The End Of The World
%%score [ 1 2 ]
L:1/8
Q:1/4=115
M:4/4
K:F
V:1 treble nm="Piano 1"
V:2 bass nm="Piano 2"
V:1
!mf!"_cresc." DFDF DFGF |"_dim." BGAF GEFE |"_cresc." DFDE DFGF |"_dim." BGAF GEFE | %4
"_cresc." [Dd][Ff][Dd][Ee] [Dd][Ff][Gg][Ff] |"_dim." [Bb][Gg][Aa][Ff] [Gg][Ee][Ff][Ee] | %6
"_cresc." [Dd][Ff][Dd][Ee] [Dd][Ff][Gg][Ff] |"_dim." [Bb][Gg][Aa][Ff] [Gg][Ee][Ff][Ee] | %8
!mf! [Dd]/[Dd]/[Ff]/[Ff]/ [Dd]/[Dd]/[Ee]/[Ee]/ [Dd]/[Dd]/[Ff]/[Ff]/ [Gg]/[Gg]/[Ff]/[Ff]/ | %9
 [Bb]/[Bb]/[Gg]/[Gg]/ [Aa]/[Aa]/[Ff]/[Ff]/ [Gg]/[Gg]/[Ee]/[Ee]/ [Ff]/[Ff]/[Ee]/[Ee]/ | %10
 [dd']/[dd']/[ff']/[ff']/ [dd']/[dd']/[ee']/[ee']/ [dd']/[dd']/[ff']/[ff']/ [gg']/[gg']/[ff']/[ff']/ | %11
 [bb']/[bb']/[gg']/[gg']/ [aa']/[aa']/[ff']/[ff']/ [gg']/[gg']/[ee']/[ee']/ [ff']/[ff']/[ee']/[ee']/ | %12
!f!"_cresc." b/g/a/f/ g/e/f/d/ e/c/d/B/ c/A/B/c/ |!f! [FAdf]8 |!p!"_cresc." D D2 D/D/ D4 | z8 | %16
"_cresc." [DF] [DF]2 [DF]/D/ [DF]4 | z8 |"_cresc." D D2 D/D/ D4 | z4!mp! z D/G/ FE | %20
"_dim." D D2 D/D/ D4 | z4"_cresc." z D/B/ GA | [Dd][Dd][Ee][Ee] [Ff][Ff][Ee][Ee] | %23
 [Gg][Gg][Ff][Ff]"_dim." [Aa][Aa][Gg][Gg] | [Dd][Dd][Ee][Ee] [Ff][Ff][Ee][Ee] | %25
"_cresc." [Gg][Gg][Ff][Ff] [Bb][Bb][Aa][Aa] | [Dd][Dd][Ee][Ee]"_dim." [Ff][Ff][Ee][Ee] | %27
 [Gg][Gg][Ff][Ff] [Aa][Gg]/[Aa]/ [Bb][Aa] |:!f! [DFAd]2 [Dd][Ee] [FAf]2 [Ff][Gg] | %29
 [Acfa]2 c'/g/a/e/ f/c/e/A/ [Cc][Dd] | [EGce]2 [cc'][dd'] [ee']2 [Ff][Ee] | %31
 [DFBd]2 [ff'][ee'] [dd']2 d/A/F/D/ | [A,D]2 [Dd][Ee] [FAf]2 [FAf][GBg] | %33
 [Aca]2 ag f[Aga][cfc'][Aa] | [Gcg]3/2[egc']3/2[ceg]3/2[Gce]3/2 [EGce]2 | %35
 [FBdf]2 [Dd][Ee] [FAf]2 [Ff][Gg] | [Acfa]2 [cc'][dd'] [ee']2 [Ff][Ee] | %37
 [DFBd]2 F,/B,/C/D/ F/A/B/c/ d/f/[Gg] | [Adfa]2 [Dd][Ee] [Ff]2 [Bfb]e | %39
 [cfc']2 [ff'][ee'] [cc']f[Bb][Aa] | [Geg]2 cd e2 [Ee]2 | [FBf]3/2[Ee]B,/C/D/ F/B/c/d/ f/a/b/c'/ | %42
 [dfbd']2 [Dd][Ee] [FAf]2 [Ff][Gg] | [Acfa]2 [cc'][dd'] [ee']2 [Ff][Ee] | %44
 [DFAd]2 ag f[Aga][cfc'][Aa] | [EGcg]2 [Dd][Ee] [Ff][Dd][Ee][Aea] | %46
 [dfad']2 [DAd][EGe] [Ff][Gg][Ff][EGe] | [CEAc]3/2[Gcf]3/2[fgc']3/2[gc'f']3/2[Aca][Bdb] | %48
 [cec']2 [Gcg]3/2[Gcf]>cG/ [Ee]2 :| [DFd]2 [Fd]3/2[Fd]!mp!F/A/d/ f/d/A/F/ | %50
"_cresc." D/F/A/d/ d/f/a/d'/"_dim." f'/d'/a/f/ a/f/d/A/ | %51
"_cresc." D/F/A/d/ d/f/a/d'/"_dim." f'/d'/a/f/ a/f/d/A/ | %52
"_cresc." B,/D/F/A/ d/f/a/d'/"_dim." f'/d'/a/f/ a/f/d/A/ | %53
"_cresc." D/F/A/d/ d/f/a/d'/"_dim." f'/d'/a/f/ a/f/d/A/ | %54
!mf!"_cresc." [Dd][Ff][Dd][Ee] [Dd][Ff][Gg][Ff] |"_dim." [Bb][Gg][Aa][Ff] [Gg][Ee][Ff][Ee] | %56
"_cresc." [Dd][Ff][Dd][Ee] [Dd][Ff][Gg][Ff] |"_dim." [Bb][Gg][Aa][Ff] [Gg][Ee][Ff][Ee] | %58
 [Dd]/!mf![Dd]/[Ff]/[Ff]/ [Dd]/[Dd]/[Ee]/[Ee]/ [Dd]/[Dd]/[Ff]/[Ff]/ [Gg]/[Gg]/[Ff]/[Ff]/ | %59
 [Bb]/[Bb]/[Gg]/[Gg]/ [Aa]/[Aa]/[Ff]/[Ff]/ [Gg]/[Gg]/[Ee]/[Ee]/ [Ff]/[Ff]/[Ee]/[Ee]/ | %60
 [dd']/[dd']/[ff']/[ff']/ [dd']/[dd']/[ee']/[ee']/ [dd']/[dd']/[ff']/[ff']/ [gg']/[gg']/[ff']/[ff']/ | %61
 [bb']/[bb']/[gg']/[gg']/ [aa']/[aa']/[ff']/[ff']/ [gg']/[gg']/[aa']/[ba']/ [bb']/[bb']/[c'c'']/[c'c'']/ | %62
 [d'd'']/!f!"_cresc."g/a/f/ g/e/f/d/ e/c/d/B/ c/A/B/G/ |!f! [FAdf]8 |] %64
V:2
!mf! D,8 | D,8 | D,, D,,2 D,2 D,2 D, | D,, D,,2 D,2 D,2 D, | [D,,,D,,] D,,2 [A,,D,]3 [A,,D,]D,, | %5
 [D,,,D,,] D,,2 [A,,D,]2 D,, [A,,D,]2 | [D,,,D,,] D,,2 [A,,D,]3 [A,,D,]D,, | %7
 [D,,,D,,] D,,2 [A,,C,]2 D,, [A,,D,]2 | %8
 [D,,,D,,][A,,D,]3/2[A,,D,][A,,D,][A,,D,]/D,,/D,,/ [A,,D,]D,, | %9
 [D,,,D,,][A,,D,]3/2[A,,D,]3/2 [A,,D,]D,,/D,,/ [A,,D,]D,, | %10
 [D,,,D,,]D,,[A,,D,]3/2[A,,D,]>D,,D,,/ [A,,D,]D,, | %11
 [D,,,D,,]D,,[A,,D,]3/2[A,,D,]"_dim."[A,,D,]/D,,/D,,/ [A,,D,]A,,/D,,/ | %12
 [A,,D,]D,,/[A,,D,]D,,/[A,,D,] D,,/[A,,D,][A,,D,][A,,D,]/D,,/A,,,/ |!f! !arpeggio![D,,,F,,,D,,]8 | %14
!mp! D,, D,,2 D,, D,,4 | D,, D,,2 D,, D,,4 |!8vb(! F,,, F,,,2 F,,, F,,,4 | %17
 F,,, F,,,2 F,,, F,,,4!8vb)! | C,, C,,2 C,, C,,4 | C,, C,,2 C,, E,,3/2E,,3/2E,, | %20
 D,, D,,2 D,, D,,4 |!p! D,,/A,,/D, A,,/D,,D,,/ [A,,D,]D,,<[A,,D,]D,, | %22
!mp! [D,,,D,,] D,,2 [D,,A,,D,]3 [A,,D,]D,, | %23
 [D,,,^D,,]=D,,<D,, [D,,A,,D,]2 F,/G,/ [A,,D,F,]E,/D,,/ | [F,,,F,,] F,,2 [F,,C,F,]3 [C,F,]F,, | %25
 D,, D,,2 [D,,A,,D,]2 D,/E,/ [A,,D,F,]E,/D,,/ | [D,,,F,,] F,,2 [F,,C,F,]3 [F,,C,F,]F,, | %27
 [A,,,,C,,] C,,2 [G,,C,]>[G,,C,]C,, [G,,C,]C,, |: %28
!mf! [D,,,B,,,]D,,[A,,D,]3/2D,,A,,/D,,/A,,/ F,D,, | [F,,,F,,]F,,[C,F,]3/2F,,3/2F,,[C,F,]F,, | %30
 C,,C,,[G,,C,]3/2C,,>C,,G,,/ C,C,, | [B,,,B,,] B,,,2 [F,,B,,]2 [F,,B,,]2 [F,,B,,] | %32
 [D,,,D,,] D,,2 [A,,D,]2 D,,[A,,D,]D,, | [F,,,F,,]3/2F,,3/2 [C,F,]2 F,,/C,/ F,F,, | %34
 C,, C,,2 [G,,C,]2 C,,[G,,C,]C,, | [D,,,D,,]D,,[A,,D,]3/2D,,A,,/D,,/A,,/ F,D,, | %36
 C,,C,,[G,,C,]3/2C,,>C,,G,,/ C,C,, | [B,,,B,,] B,,,2 [F,,B,,]2 B,,, [F,,B,,]2 | %38
 [C,,,D,,]D,,[A,,D,]3/2[A,,D,]3/2D,,[A,,D,]D,, | [F,,,F,,]F,,[C,F,]F,, F,F,,[C,F,]F,, | %40
 C,,C,, [G,,C,]C,,<C,C,,/G,,/ C,C,, | [B,,,B,,]F,,/B,,/ F,[B,,F,] F,,/[B,,F,]/E,,/B,,/ [C,F,]F,, | %42
 [D,,,D,,]D,,[A,,D,]3/2D,,A,,/D,,/A,,/ F,D,, | C,,C,,[G,,C,]3/2C,,>C,,G,,/ C,C,, | %44
 [F,,,F,,]3/2F,,3/2 [C,F,]2 F,,/C,/ F,F,, | [C,,,D,,]D,,[A,,D,]3/2[A,,D,]3/2D,,[A,,D,]D,, | %46
 [D,,,D,,]D,, [A,,D,]D,,<A,,D,,[A,,D,]D,, | [F,,,F,,]F,, [C,F,]F,<F,,F,,/C,/ F,/C,/F,, | %48
 C,,C,,[G,,C,]3/2[G,,C,][G,,C,]C,,/ [G,,C,]C,, :| %49
 B,,,B,,, [F,,B,,]B,,,<B,,!mf!B,,,/F,,/ B,,/F,,/B,,,/F,,,/ | %50
 [D,,,D,,] D,,2 [A,,D,]2 D,,[A,,D,]D,, | [B,,,A,,] B,,,2 [F,,B,,]3 [F,,B,,]B,,, | %52
 [B,,,B,,] B,,,2 [F,,B,,]3 [F,,B,,]B,,, | [B,,,B,,] B,,,2 [F,,B,,]2 B,,, B,,/B,,,/F,,/B,,,/ | %54
 [D,,,D,,] D,,2 [A,,D,]3 [A,,D,]D,, | [D,,,D,,] D,,2 [A,,D,]2 D,,[A,,D,]D,, | %56
 [D,,,D,,] D,,2 [A,,D,]3 [A,,D,]D,, | [D,,,D,,] D,,2 [A,,D,]>[A,,D,]D,, [A,,D,][A,,D,]/D,,/ | %58
 [D,,,D,,]D,,[A,,D,]3/2[A,,D,][A,,D,]D,,/ [A,,D,]D,, | %59
 [D,,,D,,]D,,[A,,D,]3/2[A,,D,]3/2D,,[A,,D,]D,, | %60
 [D,,,D,,]D,,[A,,D,]3/2[A,,D,][A,,D,]/D,, [A,,D,]D,, | %61
 [D,,,D,,]D,,[A,,D,]3/2[A,,D,][A,,D,]/D,,"_dim." [A,,D,]D,,/D,,/ | %62
 [A,,D,]/D,,[A,,D,][A,,D,]D,,/ [A,,D,][A,,D,] D,,/[A,,D,]A,,,/ |!f! !arpeggio![D,,,F,,,D,,]8 |] %64

